X: 14354
T: Gallowglass, The
R: jig
M: 6/8
K: Aminor
A/B/|:cBA eBd|cBA A2 A/B/|cBA e^fg|dBG G2 A/B/|
cBA eBd|cea e2d|cBA ^GAB|1 cBA A2 A/B/:|2 cBA A2e||
a^ga efd|cBA A2 A/B/|cBA e^fg|dBG G2e|
a^ga efd|cBA e2d|cBA ^GAB|cBA A2e|
a^ga efd|cBA A2 A/B/|cBA e^fg|dBG G2e|
aeg fdf|ecA dBG|cBA ^GAB|cBA A2 A/B/||

